highlight.io/public/images/quickstart/aws-lambda.svg

<svg height="2500" preserveAspectRatio="xMidYMid" viewBox="0 0 256 310" width="2065" xmlns="http://www.w3.org/2000/svg"><path d="m0 245.262 16.322 8.161 2.678-4.755v-189.335l-2.678-3.494-16.322 8.161z" fill="#9d5025"/><path d="m47.678 63.57-31.356-7.731v197.584l31.356-7.302z" fill="#f68536"/><path d="m143.893 78.604 22.335-11.597 74.309 28.778-19.758 2.577z" fill="#6b3a19"/><path d="m144.752 230.658 21.906 11.597 74.308-28.778-19.758-2.578z" fill="#fbbf93"/><path d="m150.336 198.872 39.087 5.155 2.244-4.027v-90l-2.244-4.765-39.087 5.154zm-114.685-152.912 24.054-12.027 2.628 5.067v231l-2.628 5.329-24.054-12.027z" fill="#9d5025"/><path d="m108.671 259.007-48.966 15.892v-240.966l48.966 15.893z" fill="#f68536"/><path d="m89.772 289.933 38.228 19.329 4-4.595v-299l-4-5.667-38.228 19.329zm130.147-191.571 19.759-2.577 1.697 2.465v112.75l-1.697 2.906-19.759-2.577z" fill="#9d5025"/><g fill="#f68536"><path d="m189.423 105.235v99.221l40.805-49.825z"/><path d="m239.678 55.839-111.678-55.839v309.262l128-64v-181.262zm0 158.217-73.45 21.936v-162.722l73.45 21.936z"/></g></svg>

<svg width="2065" height="2500" viewBox="0 0 256 310" xmlns="http://www.w3.org/2000/svg" preserveAspectRatio="xMidYMid"><path d="M0 245.262l16.322 8.161L19 248.668V59.333l-2.678-3.494L0 64v181.262" fill="#9D5025"/><path d="M47.678 63.57l-31.356-7.731v197.584l31.356-7.302V63.57" fill="#F68536"/><path d="M143.893 78.604l22.335-11.597 74.309 28.778-19.758 2.577-76.886-19.758" fill="#6B3A19"/><path d="M144.752 230.658l21.906 11.597 74.308-28.778-19.758-2.578-76.456 19.759" fill="#FBBF93"/><path d="M150.336 198.872l39.087 5.155 2.244-4.027v-90l-2.244-4.765-39.087 5.154v88.483M35.651 45.96l24.054-12.027L62.333 39v231l-2.628 5.329-24.054-12.027V45.96" fill="#9D5025"/><path d="M108.671 259.007l-48.966 15.892V33.933l48.966 15.893v209.181" fill="#F68536"/><path d="M89.772 289.933L128 309.262l4-4.595v-299L128 0 89.772 19.329v270.604M219.919 98.362l19.759-2.577 1.697 2.465V211l-1.697 2.906-19.759-2.577V98.362" fill="#9D5025"/><path d="M189.423 105.235v99.221l40.805-49.825-40.805-49.396" fill="#F68536"/><path d="M239.678 55.839L128 0v309.262l128-64V64l-16.322-8.161zm0 158.217l-73.45 21.936V73.27l73.45 21.936v118.85z" fill="#F68536"/></svg>
